img/member/raw-logo/mainmatter.svg

<svg height="20" viewBox="0 0 140 20" width="140" xmlns="http://www.w3.org/2000/svg"><path d="m3.35747105 0 7.16071745 11.0706655-1.84596085 2.84006-5.11370166-7.91845711v14.00773161h-3.55852599v-20zm107.83419595 1.7578125v4.12793975h3.313584v2.50329271h-3.313584v6.79068684c0 1.5446848.507822 2.2638758 2.164378 2.2638758.40116 0 .828278.0000003 1.149206-.0268106v2.5032919c-.507822.0531515-1.122305.0799628-1.683457.0799628l-.246952-.0027547c-3.164321-.0717297-4.536295-1.5485157-4.536295-4.9238685v-6.68438354h-2.431503v-2.50329271h2.431503v-4.12793975zm-91.2079914-1.7578125v20h-3.5585244v-20zm81.1638884 1.7578125v4.12793975h3.313112v2.50329271h-3.313112v6.79068684c0 1.5446848.507349 2.2638758 2.164377 2.2638758.400689 0 .828278.0000003 1.148735-.0268106v2.5032919c-.50735.0531515-1.122305.0799628-1.683457.0799628l-.246951-.0027547c-3.1642989-.0717297-4.5358238-1.5485157-4.5358238-4.9238685v-6.68438354h-2.4315032v-2.50329271h2.4315032v-4.12793975zm21.023631 3.80796371c3.981393 0 6.70692 3.00940732 6.70692 7.29680089l-.000427.1951947c-.001706.2821148-.010239.6357554-.052904.8701862h-10.207393c.294026 2.1039509 1.843919 3.5155219 3.981393 3.5155219 1.389429 0 2.538633-.6392294 3.447142-1.7577618l2.217707 1.5710257c-1.309197 1.7577608-3.286679 2.7431799-5.637948 2.7431799-4.355652 0-7.214741-2.9825964-7.214741-7.2168387 0-4.18109088 2.699097-7.21730879 6.760251-7.21730879zm-33.9188372 0c4.568976 0 5.9319762 2.45014079 5.9319762 5.99200289v8.1222946h-3.1531176v-1.1448724c-.9887413.9586076-2.4584024 1.4647224-4.0616264 1.4647224-3.0190827 0-5.2103599-1.8640642-5.2103599-4.5009406 0-2.636406 2.1912772-4.5004699 5.2103599-4.5004699 1.7103572 0 2.9926531.5061147 4.0616264 1.3316085v-1.3047974c0-1.73094994-.7480451-2.87629346-3.1531171-2.87629346-1.2558666 0-2.484832.42615227-3.5269039 1.27845694l-1.8170187-1.81091218c1.603224-1.35841943 3.6071358-2.05079939 5.7181811-2.05079939zm-59.9549521 0c4.568976 0 5.9319762 2.45014079 5.9319762 5.99200289v8.1222946h-3.1531176v-1.1448724c-.9887413.9586076-2.4584025 1.4647224-4.0616264 1.4647224-3.0195547 0-5.2103599-1.8640642-5.2103599-4.5009406 0-2.636406 2.1908052-4.5004699 5.2103599-4.5004699 1.7103572 0 2.9926531.5061147 4.0616264 1.3316085v-1.3047974c0-1.73094994-.7480451-2.87629346-3.1531171-2.87629346-1.2558666 0-2.484832.42615227-3.5269039 1.27845694l-1.8170187-1.81091218c1.603224-1.35841943 3.6071358-2.05079939 5.7181811-2.05079939zm12.0611685.32006048v13.79492111h-3.1531181v-13.79492111zm10.9073964-.32006048c2.9124207 0 4.8899024 1.81091247 4.8899024 5.16650969v8.947789h-3.1531165v-8.4952958c0-1.94402632-.855178-3.06255891-2.6721963-3.06255891l-.2434614.00740037c-1.4531958.08805934-2.761661.94853358-3.4703354 1.85713384v9.6933205h-3.1531167v-13.7944492h3.1531167v1.59783621c1.0685011-1.06538096 2.6452956-1.9176857 4.6492072-1.9176857zm23.8694343 0c2.8859911 0 4.4892141 1.78457199 4.4892141 5.08654749v9.0277512h-3.1531161v-8.5216368c0-1.94402636-.6144826-3.03621791-2.3512687-3.03621791-1.1756342 0-2.4853029.71919088-3.2064466 1.70460948.0533306.39934143.0533305.79868323.0533305 1.22483563v8.6284096h-3.1531166v-8.5216368c0-1.94402636-.5611514-3.03621791-2.3512682-3.03621791-1.2025356 0-2.4319725.66603939-3.1800176 1.57149562v9.98635909h-3.1531164v-13.7944492h3.1531164v1.38475999c1.1223036-1.01222954 2.5650629-1.70460948 4.222089-1.70460948 1.7901168 0 3.0993134.71919088 3.7940279 2.05079956 1.2025356-1.11853246 2.6990984-2.05079956 4.8365723-2.05079956zm63.3380141 0c.294026 0 .614482.02681091.881607.05315146v2.61006589c-.267125-.02681091-.721143-.05315163-1.122302-.05315163-1.62965 0-3.12621.82549387-3.927584 2.07714017v9.4270928h-3.153111v-13.7944492h3.153111v1.67732819c.934937-1.25164631 2.324363-1.99717768 4.168279-1.99717768zm-50.7019976 7.98891129c-1.7103565 0-2.8057586.6392286-2.8057586 1.9440262 0 1.3052679 1.0954021 1.9444965 2.8057586 1.9444965l.2403982-.0053385c1.1208707-.0498616 2.2212128-.4495062 3.0193792-1.2199671v-1.4379115c-.8816076-.7991533-2.0039113-1.2253056-3.2597774-1.2253056zm-59.9549521 0c-1.7103565 0-2.8057586.6392286-2.8057586 1.9440262 0 1.3052679 1.0954021 1.9444965 2.8057586 1.9444965l.2403159-.0053385c1.1205419-.0498616 2.2212951-.4495062 3.0194615-1.2199671v-1.4379115c-.8816076-.7991533-2.0039114-1.2253056-3.2597774-1.2253056zm94.3546817-5.43220766-.209253.00487262c-1.86001.08753227-3.087912 1.3496663-3.370983 3.40387564h7.107613c-.160464-2.1034803-1.630126-3.40874826-3.527377-3.40874826zm-83.3888848-8.12247984c1.0954027 0 1.9505814.8254938 1.9505814 1.9176857l-.0057511.15408875c-.0762392 1.01437935-.9015896 1.76312656-1.9448303 1.76312656-1.0958747 0-1.9505815-.8254938-1.9505815-1.91721531 0-1.0921919.8547068-1.9176857 1.9505815-1.9176857z" fill="#6200ee" fill-rule="evenodd"/></svg>

<?xml version="1.0" encoding="UTF-8" standalone="no"?>
<!DOCTYPE svg PUBLIC "-//W3C//DTD SVG 1.1//EN" "http://www.w3.org/Graphics/SVG/1.1/DTD/svg11.dtd">
<svg width="100%" height="100%" viewBox="0 0 2000 288" version="1.1" xmlns="http://www.w3.org/2000/svg" xmlns:xlink="http://www.w3.org/1999/xlink" xml:space="preserve" xmlns:serif="http://www.serif.com/" style="fill-rule:evenodd;clip-rule:evenodd;stroke-linejoin:round;stroke-miterlimit:2;">
    <g transform="matrix(14.3518,0,0,14.3518,0,0)">
        <path d="M3.357,0L10.518,11.071L8.672,13.911L3.559,5.992L3.559,20L-0,20L-0,0L3.357,0ZM111.192,1.758L111.192,5.886L114.505,5.886L114.505,8.389L111.192,8.389L111.192,15.18C111.192,16.724 111.699,17.444 113.356,17.444C113.757,17.444 114.184,17.444 114.505,17.417L114.505,19.92C113.997,19.973 113.383,20 112.822,20L112.575,19.997C109.411,19.926 108.039,18.449 108.039,15.073L108.039,8.389L105.607,8.389L105.607,5.886L108.039,5.886L108.039,1.758L111.192,1.758ZM19.984,0L19.984,20L16.425,20L16.425,0L19.984,0ZM101.148,1.758L101.148,5.886L104.461,5.886L104.461,8.389L101.148,8.389L101.148,15.18C101.148,16.724 101.655,17.444 103.312,17.444C103.713,17.444 104.14,17.444 104.461,17.417L104.461,19.92C103.953,19.973 103.338,20 102.777,20L102.53,19.997C99.366,19.926 97.994,18.449 97.994,15.073L97.994,8.389L95.563,8.389L95.563,5.886L97.994,5.886L97.994,1.758L101.148,1.758ZM122.171,5.566C126.153,5.566 128.878,8.575 128.878,12.863L128.878,13.058C128.876,13.34 128.867,13.694 128.825,13.928L118.617,13.928C118.911,16.032 120.461,17.443 122.599,17.443C123.988,17.443 125.137,16.804 126.046,15.686L128.264,17.257C126.954,19.015 124.977,20 122.626,20C118.27,20 115.411,17.017 115.411,12.783C115.411,8.602 118.11,5.566 122.171,5.566ZM88.252,5.566C92.821,5.566 94.184,8.016 94.184,11.558L94.184,19.68L91.031,19.68L91.031,18.535C90.042,19.494 88.573,20 86.97,20C83.951,20 81.759,18.136 81.759,15.499C81.759,12.863 83.951,10.999 86.97,10.999C88.68,10.999 89.962,11.505 91.031,12.33L91.031,11.025C91.031,9.294 90.283,8.149 87.878,8.149C86.622,8.149 85.393,8.575 84.351,9.427L82.534,7.617C84.137,6.258 86.141,5.566 88.252,5.566ZM28.297,5.566C32.866,5.566 34.229,8.016 34.229,11.558L34.229,19.68L31.076,19.68L31.076,18.535C30.088,19.494 28.618,20 27.015,20C23.995,20 21.804,18.136 21.804,15.499C21.804,12.863 23.995,10.999 27.015,10.999C28.725,10.999 30.007,11.505 31.076,12.33L31.076,11.025C31.076,9.294 30.328,8.149 27.923,8.149C26.667,8.149 25.438,8.575 24.396,9.427L22.579,7.617C24.182,6.258 26.186,5.566 28.297,5.566ZM40.359,5.886L40.359,19.681L37.205,19.681L37.205,5.886L40.359,5.886ZM51.266,5.566C54.178,5.566 56.156,7.377 56.156,10.732L56.156,19.68L53.003,19.68L53.003,11.185C53.003,9.241 52.148,8.122 50.331,8.122L50.087,8.13C48.634,8.218 47.325,9.078 46.617,9.987L46.617,19.68L43.464,19.68L43.464,5.886L46.617,5.886L46.617,7.483C47.685,6.418 49.262,5.566 51.266,5.566ZM75.135,5.566C78.021,5.566 79.625,7.35 79.625,10.652L79.625,19.68L76.472,19.68L76.472,11.158C76.472,9.214 75.857,8.122 74.12,8.122C72.945,8.122 71.635,8.841 70.914,9.827C70.967,10.226 70.967,10.626 70.967,11.052L70.967,19.68L67.814,19.68L67.814,11.158C67.814,9.214 67.253,8.122 65.463,8.122C64.26,8.122 63.031,8.788 62.283,9.694L62.283,19.68L59.13,19.68L59.13,5.886L62.283,5.886L62.283,7.27C63.405,6.258 64.848,5.566 66.505,5.566C68.295,5.566 69.604,6.285 70.299,7.617C71.501,6.498 72.998,5.566 75.135,5.566ZM138.473,5.566C138.767,5.566 139.088,5.593 139.355,5.619L139.355,8.229C139.088,8.202 138.634,8.176 138.233,8.176C136.603,8.176 135.107,9.001 134.305,10.253L134.305,19.68L131.152,19.68L131.152,5.886L134.305,5.886L134.305,7.563C135.24,6.311 136.63,5.566 138.473,5.566ZM87.771,13.555C86.061,13.555 84.966,14.194 84.966,15.499C84.966,16.804 86.061,17.443 87.771,17.443L88.012,17.438C89.133,17.388 90.233,16.988 91.031,16.218L91.031,14.78C90.15,13.981 89.027,13.555 87.771,13.555ZM27.816,13.555C26.106,13.555 25.011,14.194 25.011,15.499C25.011,16.804 26.106,17.443 27.816,17.443L28.057,17.438C29.177,17.388 30.278,16.988 31.076,16.218L31.076,14.78C30.195,13.981 29.072,13.555 27.816,13.555ZM122.171,8.122L121.962,8.127C120.102,8.215 118.874,9.477 118.591,11.531L125.699,11.531C125.538,9.428 124.068,8.122 122.171,8.122ZM38.782,0C39.878,0 40.733,0.825 40.733,1.918L40.727,2.072C40.651,3.086 39.826,3.835 38.782,3.835C37.686,3.835 36.832,3.009 36.832,1.918C36.832,0.825 37.686,-0 38.782,-0Z" style="fill:rgb(98,0,238);"/>
    </g>
</svg>
